svgs/sharp-light/message-middle-top.svg

<svg xmlns="http://www.w3.org/2000/svg" viewBox="0 0 512 512"><!--! Font Awesome Pro 6.6.0 by @fontawesome - https://fontawesome.com License - https://fontawesome.com/license (Commercial License) Copyright 2024 Fonticons, Inc. --><path d="M173.7 96L32 96 0 96l0 32L0 480l0 32 32 0 448 0 32 0 0-32 0-352 0-32-32 0L338.3 96 277.1 24.6 256 0 234.9 24.6 173.7 96zM256 49.2l58 67.7 9.6 11.2 14.7 0L480 128l0 352L32 480l0-352 141.7 0 14.7 0 9.6-11.2 58-67.7z"/></svg>

<svg xmlns="http://www.w3.org/2000/svg" viewBox="0 0 512 512"><!--! Font Awesome Pro 6.4.2 by @fontawesome - https://fontawesome.com License - https://fontawesome.com/license (Commercial License) Copyright 2023 Fonticons, Inc. --><path d="M173.7 96H32 0v32V480v32H32 480h32V480 128 96H480 338.3L277.1 24.6 256 0 234.9 24.6 173.7 96zM256 49.2l58 67.7 9.6 11.2h14.7H480V480H32V128H173.7h14.7l9.6-11.2 58-67.7z"/></svg>
